X: 399
T: Bitter Creek
C:Traditional
B: jims roots
M:4/4
L:1/8
Q: 1/4=100
K:G
V:1 
%Q:460
X ga |: "G"bgdg edBc | "C"dBGB AGEG | "G"DB,DG "C"EFGA | "G"BAGB "D"A2 ga |
"G"bgdg edBc | "C"dBGB AGEG | "G"DB,DG "C"EFGA |1 B"D"GAF "G"G2 ga :|2 B"D"GAF "G"G2 B,A, ]
|: "G"G,A,B,D G2 GA | "C"B^ABc B=AGE | "G"DB,DG "C"EFGA | "G"BAGB "D"AGFD |
"G"G,A,B,D G2 GA | "C"B^ABc B2 =AB | "G"cBAG "C"FEDC |1 B,"D"G,A,B, "G"G,2 B,A, :|2 B,"D"G,A,B, "G"G,2 DE ||
|: "G"G2 g/f/e d2 ed | "C"BAGB AGEG | "G"DB,DG "C"EFGA | "G"BAGB "D"AGFA |
"G"G2 g/f/e d2 ed | "C"BAGB AGEG | "G"DB,DG "C"EFGA |1 B"D"GAF "G"G2 DE :|2 B"D"GAF.  "G"G4||
% abcbook-tune_id 6298c2453fc300a4f2e6e099


% abcbook-boost 0
% abcbook-tablature 
% abcbook-transpose 
% abcbook-lastupdated 1654178373360
% abcbook-soundfonts 
% abcbook-repeats 1


